**kern	**kern
*staff2	*staff1
*clefF4	*clefF4
*k[]	*k[]
*M3/4	*M3/4
*C:	*C:
=-	=-
4GG	4G 4B 4d
=241	=241
8r	2G# 2B 2d
(8DD#L	.
8EE)	.
8EE'	.
8EE'	4G# 4B 4d
8EE'J	.
=242	=242
8r	2E 2A 2c
(8GG#L	.
8AA)	.
8AA'	.
8AA'	4E 4A 4c
8AA'J	.
=243	=243
8r	[2.F# [2.A
(8C#L	.
8D)	.
8D'	.
8D'	.
8D'J	.
=244	=244
(8C#L	2F#] 2A]
8DJ	.
8CL	.
8DJ	.
8BBL	4G 4B
8DJ)	.
=245	=245
8r	2E 2A 2c
(8BBBL	.
8CC)	.
8CC'	.
8CC'	4E 4A 4c
8CC'J	.
=246	=246
8r	2C 2F# 2A
(8CC#L	.
8DD)	.
8DD'J	.
8DD'L	4C 4F# 4A
8DD'J	.
=247	=247
8r	2.C 2.D 2.A
(8FFF#L	.
8GGG)	.
(8BBB	.
8DD)	.
(8FF#J	.
=248	=248
4GG)	4BB 4D 4G
4GGG	4r
=	=
*-	*-
